X: 761
T: Air Tune, The
R: reel
M: 4/4
K: Dmajor
|Af fe f2 ed|(3fga )de f2 ed|Be ed fd cd|BA A 2 BAFG|
Af fe f2 ed|(3fga ) de f2 ed|dB Be dB cd FE ED D2:|
a2 ga fg ef|ed cd FA DA|Be ed fd ed|BA A2 BA FG|
a2 ga fg ef|ed cd FA DA GB BA 3Bcd BA|1 Af fe d2:|2 FE ED D2||

